!! Isochronous pitch passage.
!! Inner-voice line.
!! From J.S. Bach, Brandenburg Concerto No. 4, 3rd movement, measure 41ff.
!! violin solo
!! 2/2 meter
**kern	**metpos
*M2/2	*M2/2
*tb8	*tb8
=41	=41
8gg	1
8d	4
8b	3
8gg	4
8dd	2
8b	4
8g	3
8dd	4
=42	=42
8b	1
8g	4
8d	3
8b	4
8g	2
8d	4
8B	3
8d	4
=43	=43
8G	1
8B	4
8c	3
8d	4
8e	2
8f#	4
8g	3
8B	4
=44	=44
8A	1
8c	4
8d	3
8e	4
8f#	2
8g	4
8a	3
8c	4
=45	=45
8B	1
8d	4
8e	3
8f#	4
8g	2
8a	4
8b	3
8fn	4
=46	=46
8e	1
8g	4
8a	3
8b	4
8cc	2
8ee	4
8dd	3
8cc	4
=47	=47
8b	1
8dd	4
8ee	3
8ff#	4
8gg	2
8aa	4
8bb	3
8dd	4
=48	=48
8cc#	1
8bb	4
8gg	3
8ee	4
8cc#	2
8gg	4
8ee	3
8cc#	4
=49	=49
8f#	1
8cc#	4
8dd	3
8ee	4
8ff#	2
8gg	4
8aa	3
8cc#	4
=50	=50
8b	1
8aa	4
8ff#	3
8dd	4
8b	2
8ff#	4
8dd	3
8b	4
=51	=51
8e	1
8b	4
8cc#	3
8dd	4
8ee	2
8ff#	4
8gg	3
8b	4
=52	=52
8a	1
8gg	4
8ee	3
8cc#	4
8a	2
8ee	4
8cc#	3
8a	4
=53	=53
8d	1
8f#	4
8g	3
8a	4
8b	2
8cc#	4
8dd	3
8f#	4
=54	=54
8e	1
8g	4
8a	3
8b	4
8cc#	2
8dd	4
8ee	3
8g	4
=55	=55
*-	*-
